actions/scalable/format-text-direction-rtl.svg

<svg width="48" version="1.0" xmlns="http://www.w3.org/2000/svg" height="48" xmlns:xlink="http://www.w3.org/1999/xlink">
<defs>
<linearGradient id="linearGradient964">
<stop offset="0" style="stop-color:#666"/>
<stop offset="1"/>
</linearGradient>
<linearGradient id="linearGradient3770">
<stop offset="0" style="stop-color:#ffda7d"/>
<stop offset="0.3" style="stop-color:#ffda7d"/>
<stop offset="0.3" style="stop-color:#ffc941"/>
<stop offset="0.6" style="stop-color:#ffc941"/>
<stop offset="0.6" style="stop-color:#dc9e00"/>
<stop offset="1" style="stop-color:#dc9e00"/>
</linearGradient>
<linearGradient gradientTransform="matrix(0.53666915,0.53666915,-0.73355593,0.73355593,11.180182,-19.947429)" id="linearGradient3849" xlink:href="#linearGradient3770" y1="23.72045" y2="23.72045" x1="34.265" x2="45.4021" gradientUnits="userSpaceOnUse"/>
<linearGradient xlink:href="#linearGradient964" id="linearGradient966" y1="28.298313" x1="2.4569364" y2="31.55405" x2="5.7056303" gradientUnits="userSpaceOnUse"/>
</defs>
<g style="color:#000">
<path style="fill:#d2d2d2" d="m 27.3789,22.3965 c -0.353477,0.006181 -0.703534,0.127318 -0.849609,0.277344 l -9.6152,9.875 c -0.288139,0.295929 -0.312498,0.428121 -0.3125,0.457031 0,0.028915 0.024368,0.163063 0.3125,0.458985 l 9.6152,9.875 c 0.291209,0.299083 0.743583,0.344868 1.18359,0.189453 0.44001,-0.155415 0.669921,-0.468733 0.669921,-0.646485 v -5.90625 -0.802734 l 14.5469,.0176 c 0.356847,0 0.4847,-0.087256 0.55664,-0.160156 0.071944,-0.072897 0.121094,-0.180595 0.121094,-0.355469 v -5.33789 c 0,-0.174877 -0.047171,-0.280646 -0.119141,-0.353516 -0.071965,-0.072869 -0.201273,-0.162109 -0.558593,-0.162109 h -14.5469 v -6.69141 c 0,-0.223055 -0.056162,-0.326761 -0.158203,-0.435547 -0.10204,-0.108783 -0.276198,-0.210151 -0.498047,-0.263671 -0.110924,-0.026759 -0.22983,-0.037217 -0.347656,-0.035157 z "/>
<path style="opacity:.88" d="m 26.6602,20.8496 c -0.472115,0.105703 -0.916701,0.332676 -1.2793,0.705078 l -9.6152,9.875 c -0.42963,0.441252 -0.765624,0.956396 -0.765625,1.57617 0,0.619777 0.335991,1.13493 0.765625,1.57617 l 9.6152,9.875 c 0.80129,0.822956 1.96338,0.900574 2.86523,0.582031 0.901853,-0.318542 1.74023,-1.07319 1.74023,-2.15625 v -5.10547 l 12.9414,.0156 c 0.680392,0 1.2912,-0.223276 1.69922,-0.636719 0.408023,-0.413443 0.582031,-0.964484 0.582031,-1.48047 v -5.33789 c 0,-0.515987 -0.174031,-1.06732 -0.582031,-1.48047 -0.408,-0.413146 -1.01735,-0.636719 -1.69727,-0.636719 h -12.9434 v -5.08984 c 0,-0.598448 -0.23196,-1.14958 -0.591797,-1.5332 -0.359837,-0.38362 -0.822317,-0.611074 -1.29297,-0.724609 -0.470651,-0.113535 -0.969291,-0.12914 -1.44141,-0.02344 z  m 1.0664,1.582 c 0.221849,0.05352 0.396007,0.154887 0.498047,0.263671 0.102041,0.108785 0.158203,0.212492 0.158203,0.435547 v 6.69141 h 14.5469 c 0.357321,0 0.486629,0.08924 0.558594,0.162109 0.07197,0.07287 0.119141,0.178639 0.119141,0.353516 v 5.33789 c 0,0.174874 -0.04915,0.282572 -0.121094,0.355469 -0.07194,0.0729 -0.199793,0.160603 -0.556641,0.160156 l -14.5469,-.0176 v 0.802734 5.90625 c 0,0.177752 -0.229911,0.49107 -0.669921,0.646485 -0.440011,0.155415 -0.892385,0.10963 -1.18359,-0.189453 l -9.6152,-9.875 c -0.288133,-0.295922 -0.3125,-0.43007 -0.3125,-0.458985 0,-0.02891 0.02436,-0.161102 0.3125,-0.457031 l 9.6152,-9.875 c 0.194767,-0.2 0.753569,-0.34922 1.19727,-0.242187 z "/>
</g>
<g style="fill-rule:evenodd">
<path style="fill:#d57000" d="m 28.9161,.0159 c -0.559347,0.0761498 -1.22711,0.415041 -1.66223,0.849862 l -3.5989,3.5636 5.932,5.939 3.599,-3.5636 c 0.715594,-0.715107 1.07054,-2.0682 0.602025,-2.53745 l -4.0749,-4.0746 c -0.170927,-0.171198 -0.461312,-0.222592 -0.796922,-0.1769 Z "/>
<path style="fill:#d0d0d0" d="m 23.6688,4.4433 -3.7409,3.7273 5.9323,5.9387 3.7406,-3.727 z "/>
<path style="fill:url(#linearGradient3849)" d="m 19.9272,8.1664 -15.4752,15.3924 5.9785,5.9572 15.4287,-15.4104 Z "/>
<path style="fill:#e9d078" d="m 4.4898,23.5823 -4.4898,10.4367 10.4217,-4.4976 -5.932,-5.939 Z "/>
<path style="fill:url(#linearGradient966)" d="m 2.457,28.2982 -2.457,5.7208 5.7056,-2.465 -3.2487,-3.2557 Z "/>
</g>
</svg>

<svg width="48" version="1.0" xmlns="http://www.w3.org/2000/svg" height="48" xmlns:xlink="http://www.w3.org/1999/xlink">
<defs>
<linearGradient id="linearGradient18">
<stop offset="0" style="stop-color:#dbc457"/>
<stop offset="1" style="stop-color:#f0da94"/>
</linearGradient>
<linearGradient id="linearGradient3770">
<stop offset="0" style="stop-color:#ffda7d"/>
<stop offset="0.3" style="stop-color:#ffda7d"/>
<stop offset="0.3" style="stop-color:#ffc941"/>
<stop offset="0.68" style="stop-color:#ffc941"/>
<stop offset="0.68" style="stop-color:#dc9e00"/>
<stop offset="1" style="stop-color:#dc9e00"/>
</linearGradient>
<linearGradient id="linearGradient16">
<stop offset="0" style="stop-color:#bababa"/>
<stop offset="1" style="stop-color:#e3e3e3"/>
</linearGradient>
<linearGradient id="linearGradient964">
<stop offset="0" style="stop-color:#666"/>
<stop offset="1"/>
</linearGradient>
<linearGradient id="linearGradient14">
<stop offset="0" style="stop-color:#b25c00"/>
<stop offset="1" style="stop-color:#fa8600"/>
</linearGradient>
<linearGradient xlink:href="#linearGradient18" id="linearGradient19" y1="29.5214" x1="10.4217" y2="23.592215" x2="4.4855347" gradientUnits="userSpaceOnUse"/>
<linearGradient xlink:href="#linearGradient964" id="linearGradient966" y1="28.298313" x1="2.4569364" y2="31.55405" x2="5.7056303" gradientUnits="userSpaceOnUse"/>
<linearGradient xlink:href="#linearGradient16" id="linearGradient17" y1="14.1093" x1="25.860201" y2="8.1664" x2="19.9272" gradientUnits="userSpaceOnUse"/>
<linearGradient xlink:href="#linearGradient14" id="linearGradient15" y1="10.3823" x1="29.6008" y2="4.4432998" x2="23.6688" gradientUnits="userSpaceOnUse"/>
<linearGradient gradientTransform="matrix(0.53666915,0.53666915,-0.73355593,0.73355593,11.180182,-19.947429)" id="linearGradient3849" xlink:href="#linearGradient3770" y1="23.72045" y2="23.72045" x1="34.265" x2="45.4021" gradientUnits="userSpaceOnUse"/>
</defs>
<g style="color:#000">
<path style="fill:#d2d2d2" d="m 27.3789,22.3965 c -0.353477,0.0062 -0.703534,0.127318 -0.849609,0.277344 l -9.6152,9.875 c -0.288139,0.295929 -0.312498,0.428121 -0.3125,0.457031 0,0.02891 0.02437,0.163063 0.3125,0.458985 l 9.6152,9.875 c 0.291209,0.299083 0.743583,0.344868 1.18359,0.189453 0.44001,-0.155415 0.669921,-0.468733 0.669921,-0.646485 v -5.90625 -0.802734 l 14.5469,.0176 c 0.356847,0 0.4847,-0.08726 0.55664,-0.160156 0.07194,-0.0729 0.121094,-0.180595 0.121094,-0.355469 v -5.33789 c 0,-0.174877 -0.04717,-0.280646 -0.119141,-0.353516 -0.07196,-0.07287 -0.201273,-0.162109 -0.558593,-0.162109 h -14.5469 v -6.69141 c 0,-0.223055 -0.05616,-0.326761 -0.158203,-0.435547 -0.10204,-0.108783 -0.276198,-0.210151 -0.498047,-0.263671 -0.110924,-0.02676 -0.22983,-0.03722 -0.347656,-0.03516 z "/>
<path style="opacity:.88" d="m 26.6602,20.8496 c -0.472115,0.105703 -0.916701,0.332676 -1.2793,0.705078 l -9.6152,9.875 c -0.42963,0.441252 -0.765624,0.956396 -0.765625,1.57617 0,0.619777 0.335991,1.13493 0.765625,1.57617 l 9.6152,9.875 c 0.80129,0.822956 1.96338,0.900574 2.86523,0.582031 0.901853,-0.318542 1.74023,-1.07319 1.74023,-2.15625 v -5.10547 l 12.9414,.0156 c 0.680392,0 1.2912,-0.223276 1.69922,-0.636719 0.408023,-0.413443 0.582031,-0.964484 0.582031,-1.48047 v -5.33789 c 0,-0.515987 -0.174031,-1.06732 -0.582031,-1.48047 -0.408,-0.413146 -1.01735,-0.636719 -1.69727,-0.636719 h -12.9434 v -5.08984 c 0,-0.598448 -0.23196,-1.14958 -0.591797,-1.5332 -0.359837,-0.38362 -0.822317,-0.611074 -1.29297,-0.724609 -0.470651,-0.113535 -0.969291,-0.12914 -1.44141,-0.02344 z  m 1.0664,1.582 c 0.221849,0.05352 0.396007,0.154887 0.498047,0.263671 0.102041,0.108785 0.158203,0.212492 0.158203,0.435547 v 6.69141 h 14.5469 c 0.357321,0 0.486629,0.08924 0.558594,0.162109 0.07197,0.07287 0.119141,0.178639 0.119141,0.353516 v 5.33789 c 0,0.174874 -0.04915,0.282572 -0.121094,0.355469 -0.07194,0.0729 -0.199793,0.160603 -0.556641,0.160156 l -14.5469,-.0176 v 0.802734 5.90625 c 0,0.177752 -0.229911,0.49107 -0.669921,0.646485 -0.440011,0.155415 -0.892385,0.10963 -1.18359,-0.189453 l -9.6152,-9.875 c -0.288133,-0.295922 -0.3125,-0.43007 -0.3125,-0.458985 0,-0.02891 0.02436,-0.161102 0.3125,-0.457031 l 9.6152,-9.875 c 0.194767,-0.2 0.753569,-0.34922 1.19727,-0.242187 z "/>
</g>
<g style="fill-rule:evenodd">
<path style="fill:url(#linearGradient15)" d="m 28.9161,0.0159 c -0.559347,0.0761498 -1.22711,0.415041 -1.66223,0.849862 l -3.5989,3.5636 5.932,5.939 3.599,-3.5636 c 0.715594,-0.715107 1.07054,-2.0682 0.602025,-2.53745 l -4.0749,-4.0746 C 29.542168,0.021514 29.251783,-0.02988 28.916173,0.015812 Z"/>
<path style="fill:url(#linearGradient17)" d="m 23.6688,4.4433 -3.7409,3.7273 5.9323,5.9387 3.7406,-3.727 z"/>
<path style="fill:url(#linearGradient3849)" d="M 19.9272,8.1664 4.452,23.5588 10.4305,29.516 25.8592,14.1056 Z"/>
<path style="fill:url(#linearGradient19)" d="M 4.4898,23.5823 0,34.019 10.4217,29.5214 4.4897,23.5824 Z"/>
<path style="fill:url(#linearGradient966)" d="M 2.457,28.2982 0,34.019 5.7056,31.554 2.4569,28.2983 Z"/>
</g>
</svg>
